X:1
T:Title
%%score 1 2 3 4
L:1/8
Q:1/4=100
M:2/4
K:G
V:1 treble nm="Church Organ, Soprano"
V:2 treble nm="French Horn, Alto"
V:3 bass nm="Trombone, Tenor"
V:4 bass nm="Tuba, Bass"
V:1
 e2 ed | G3 A | B2 B2 | E2 z B | e2 d2 | G3 A | B2 B2 | E4 | z E EF | G3 F | E2 D2 | E4 | z E EF | %13
w: By~P.~Tschaikowsky * *|||||||||||||
 G3 F | E2 D2 | E2 z B | e2 d2 | G3 A | B2 B2 | E2 GB | e2 d2 | G3 A | B2 B2 | E4 | z E EF | G3 F | %26
w: |||||||||||||
 E2 D2 | E4 | z E EF | G3 F | E2 D2 | E4 | z G GA | B2 .e2 | z e gf | e2 .B2 | z G AA | B2 e2 | %38
w: ||||||||||||
 g2 f2 | .e4 | z E EF | G3 F | E2 D2 | E4 | z E EF | G2 z F | E2 D2 | .E4 | F2 FF | G3 G | A3 A | %51
w: |||||||||||||
 B3 B | d2 c2 | B2 E2 | G2 F2 | E3 E | F3 F | G3 G | A3 A | B3 B | d2 c2 | B4 | .B2 z2 | z2 E2 | %64
w: |||||||||||||
 G2 F2 | E4 | .E2 z2 |] %67
w: |||
V:2
 G2 GA | D3 E | E2 ^D2 | B,2 z E | G2 A2 | D2 EE | E2 ^D2 | B,4 | z B, B,D | D3 D | B,2 B,2 | B,4 | %12
w: When~ Je sus~|Christ~ was~|yet~ a~|child,~ He~|had~ a~|gar * den~|small~ and~|wild,~|Where in~ He~|cher ished~|ro ses~|fair,~|
 z B, B,[K:treble]D | D3 D | B,2 B,2 | B,2 z E | AG F2 | D3 E | E^C ^DF | B,2 EE | c2 A2 | D3 E | %22
w: And~ wove~ them~|in to~|gar lands~|there.~ Now~|once,~ * as~|sum mer~|time~ * drew~ *|nigh,~ * There~|came~ a~|troop~ of~|
 E^C ^DF | B,4 | z B, B,D | D3 D | B,2 B,2 | B,4 | z B, B,[K:treble]D | D3 D | B,2 B,2 | B,4 | %32
w: child * ren~ *|by,~|And~ see ing~|ro ses~|on~ the~|tree,~|With~ shouts~ they~|pluck'd~ them~|mer ri|ly.~|
 z B, B,A, | D2[K:treble] .E2 | z G ^DD | E2 .E2 | z[K:bass] B, A,A, | D2 E2 | E2 ^D2 | .E4 | %40
w: �Do~ you~ bind~|ro ses~|in~ * your~|hair?�~ *|They~ cried,~ in~|scorn,~ to~|Je sus~|there.~|
 z B, B,A, | D3 D | B,2 B,2 | B,4 | z B, B,[K:treble]D | D2 z D | B,2 B,2 | .B,4 | D2 FF | E3 E | %50
w: The~ Boy~ said~|hum bly:~|�Take,~ I~|pray,~|All~ but~ the~|na ked~|thorns~ a|way.�~|Then~ of~ the~|thorns~ they~|
 F3 F | G3 D | B2 A2 | E2 ^C2 | E2 ^D2 | B,3 B, | D3 F | E3 E | F3 F | G3 D | B2 A2 | E4 | .E2 z2 | %63
w: made~ a~|crown,~ And~|with~ rough~|fin gers~|press'd~ it~|down,~ Till~|on~ his~|fore head~|fair~ and~|young,~ Red~|drops~ of~|blood,~||
 z2 E2 | ^D2 D2 | B,4 | .B,2 z2 |] %67
w: like~|ro ses~|sprung.~||
V:3
 B,2 B,A, | B,3 F, | G,2 F,2 | G,2 z G, | B,2 DC | B,3 F, | G,2 F,2 | G,4 | z G, G,A, | B,3 A, | %10
 G,2 G,2 | G,4 | z G, G,A, | B,3 A, | G,2 G,2 | G,2 z G, | A,2 A,2 | DC B,B, | G,E, F,A, | G,3 G, | %20
 G,[K:treble]G F2 | DC B,[K:bass]A, | G,E, F,A, | G,4 | z G, G,A, | B,3 A, | G,2 G,2 | G,4 | %28
 z G, G,A, | B,3 A, | G,2 G,2 | G,4 | E2 ED | G,3 A, | B,2 B,2 | B,3 B, | E2 D2 | G,3 A, | B,3 B, | %39
 .B,4 | z G, G,A, | B,3 A, | G,2 G,2 | G,4 | z G, G,A, | B,2 z A, | G,2 G,2 | .G,4 | %48
 A,2[K:treble] DD | E3 E | C3 C | D3 G | =F2 E^F | G2[K:bass] G,A, | _B,2 =B,A, | G,3 G, | %56
 A,3[K:treble] D | E3 E | C3 C | D3 G | =F2 E^F | G4 | .G2 z2 | z2[K:bass] G,2 | A,2 A,2 | G,4 | %66
 .G,2 z2 |] %67
V:4
 E,2 E,F, | G,3 C, | B,,2 B,,2 | E,2 z E, | E,2 F,2 | G,F, E,C, | B,,2 B,,2 | E,4 | z E, E,D, | %9
 G,,3 D, | E,2 G,2 | E,4 | z E, E,D, | G,,3 D, | E,2 G,2 | E,2 z E, | C,2 D,C, | B,,A,, G,,C, | %18
 B,,2 B,,2 | E,D, C,B,, | A,,2 D,C, | B,,A,, G,,C, | B,,2 B,,2 | E,4 | z E, E,D, | G,,3 D, | %26
 E,2 G,2 | E,4 | z E, E,D, | G,,3 D, | E,2 G,2 | E,4 | z E, E,F, | G,2 .C,2 | %34
 z [B,,B,] [B,,B,]B,, | .[E,G,]4 | z E, F,F, | G,2 C,2 | B,,2 B,,2 | .[E,G,]4 | z E, E,D, | %41
 G,,3 D, | E,2 G,2 | E,4 | z E, E,D, | G,,2 z D, | E,2 G,2 | .E,4 | D,2[K:treble] DD | C3 C | %50
 A,3[K:bass] A, | G,3 G, | ^G,2 A,2 | B,2 B,,2 | B,,2 B,,2 | E,3 E, | D,3[K:treble] D | C3 C | %58
 A,3 A, | G,3 G, | ^G,2 A,2 | B,3 B,, | B,,2 B,,2 | B,,3 B,, | B,,3 B,, | [E,,E,]4 | %66
 .[E,,E,]2 z2 |] %67

